X:1
T:Title
%%score { ( 1 3 6 ) | ( 2 4 5 ) }
L:1/8
M:4/4
K:Eb
V:1 treble nm="Grand Piano"
V:3 treble 
V:6 treble 
V:2 bass 
V:4 bass 
V:5 bass 
V:1
 z4 z2[Q:1/4=94] EF | GGGG AGFE |[M:3/4] [DB][DB] [DB][DB] B2 |[M:1/4] EF |[M:4/4] GGGG AGGG | %5
[M:3/4] GF FF z A, |[M:1/4] EF |[M:4/4] GGGG AGFE |[M:3/4] [DB][DB] [DB][DB] [EB]2 | %9
[M:1/4] [EG][GB] |[M:4/4] [Ge][Ge][GB][Ac] [GB]GEF |[M:3/4] GG [DG][DF] E2 |[M:1/4] BB | %13
[M:4/4] B6 z2 | [Ac]6 z2 | z2 B,B, z c[GB][FA] | [EG]6 z2 | GGGG AGFE | cccd e2 dc | B6 z2 | %20
[M:3/4] [G,E]6 |] %21
V:2
 z4 z2 [E,G,][E,A,E] | [E,B,E][E,B,E][E,B,E][E,B,E] [E,CE][E,B,E][E,A,E][E,G,] | %2
[M:3/4] [B,,F,][B,,F,] [B,,A,][B,,A,] [E,G,E]2 |[M:1/4] [E,G,][E,A,E] | %4
[M:4/4] [E,B,E][E,B,E][E,B,E][E,B,E] [E,CE][E,B,E][E,B,E][E,B,E] | %5
[M:3/4] [F,=A,E][F,A,E] [F,A,E][F,A,E] .[B,,B,]2 |[M:1/4] [E,G,][E,A,E] | %7
[M:4/4] [E,B,E][E,B,E][E,B,E][E,B,E] [E,CE][E,B,E][E,A,E][E,G,] | %8
[M:3/4] [B,,F,][B,,F,] [B,,A,][B,,A,] [E,G,]2 |[M:1/4] [E,B,][E,E] | %10
[M:4/4] [E,B,][E,B,][E,E][E,E] [E,E][E,B,E][G,B,][A,CE] | %11
[M:3/4] [B,E][B,E] [B,,B,][B,,A,] [E,G,]2 |[M:1/4][K:treble] GG |[M:4/4] G6[K:bass] z2 | %14
 [A,E]2 A,2 A,2[K:treble] FE | D6[K:bass] z2 | [E,B,]2 E,2 E,2 [E,G,][E,A,E] | %17
 [E,B,E][E,B,E][E,B,E][E,B,E] [E,CE][E,B,E][E,A,E][E,G,] | [A,E][A,E][A,E][A,B,E] [A,CA]2 AA | %19
 G6[K:bass] z2 |[M:3/4] E,6 |] %21
V:3
 x8 | x8 |[M:3/4] x6 |[M:1/4] x2 |[M:4/4] x8 |[M:3/4] z2 z2 [DF]2 |[M:1/4] x2 |[M:4/4] x8 | %8
[M:3/4] x6 |[M:1/4] x2 |[M:4/4] x8 |[M:3/4] x6 |[M:1/4] x2 |[M:4/4] z2 EE EG[FA][GB] | %14
 z2 E2 E2 AG | F6 z2 | z2 B,2 B,2 EF | x8 | x8 | z2 EE E[B,FA][B,EG][A,DF] |[M:3/4] x6 |] %21
V:4
 x8 | x8 |[M:3/4] x6 |[M:1/4] x2 |[M:4/4] x8 |[M:3/4] x6 |[M:1/4] x2 |[M:4/4] x8 |[M:3/4] x6 | %9
[M:1/4] x2 |[M:4/4] x8 |[M:3/4] x6 |[M:1/4][K:treble] x2 |[M:4/4] z2[K:bass] E,E, z E [E,E]2 | %14
 x6[K:treble] x2 | z2[K:bass] B,,B,, z A [B,,B,]2 | x8 | x8 | x8 | z2[K:bass] B,B, B,,B,,B,,B,, | %20
[M:3/4] x6 |] %21
V:5
 x8 | x8 |[M:3/4] x6 |[M:1/4] x2 |[M:4/4] x8 |[M:3/4] x6 |[M:1/4] x2 |[M:4/4] x8 |[M:3/4] x6 | %9
[M:1/4] x2 |[M:4/4] x8 |[M:3/4] x6 |[M:1/4][K:treble] x2 |[M:4/4] z4[K:bass] E,2 z2 | %14
 x6[K:treble] x2 | z4[K:bass] B,,2 z2 | x8 | x8 | x8 | x2[K:bass] x6 |[M:3/4] x6 |] %21
V:6
 x8 | x8 |[M:3/4] x6 |[M:1/4] x2 |[M:4/4] x8 |[M:3/4] x6 |[M:1/4] x2 |[M:4/4] x8 |[M:3/4] x6 | %9
[M:1/4] x2 |[M:4/4] x8 |[M:3/4] x6 |[M:1/4] x2 |[M:4/4] x8 | x8 | z4 B,2 z2 | x8 | x8 | x8 | x8 | %20
[M:3/4] x6 |] %21

